packages/astro-components-stencil/src/icons/battery-charging-full.svg

<svg width="24" height="24" viewBox="0 0 24 24" fill="none" xmlns="http://www.w3.org/2000/svg">
<path fill-rule="evenodd" clip-rule="evenodd" d="M14 4H15.67C16.4 4 17 4.6 17 5.33V20.67C17 21.4 16.4 22 15.66 22H8.34C7.6 22 7 21.4 7 20.66V5.33C7 4.6 7.6 4 8.33 4H10V3C10 2.45 10.45 2 11 2H13C13.55 2 14 2.45 14 3V4ZM11.611 16.7397L14.281 11.7397C14.461 11.3997 14.211 10.9997 13.841 10.9997H12.671V7.49969C12.671 6.97969 11.971 6.80969 11.731 7.25969L9.06096 12.2597C8.88096 12.5997 9.12096 12.9997 9.50096 12.9997H10.671V16.4997C10.671 17.0197 11.371 17.1897 11.611 16.7397Z" fill="black"/>
</svg>

<svg xmlns="http://www.w3.org/2000/svg" viewBox="0 0 24 24"><g xmlns="http://www.w3.org/2000/svg" id="battery-charging-full" fill-rule="nonzero">
            <path d="M13 2c.55 0 1 .45 1 1v1h1.67C16.4 4 17 4.6 17 5.33v15.34c0 .73-.6 1.33-1.34 1.33H8.34C7.6 22 7 21.4 7 20.66V5.33C7 4.6 7.6 4 8.33 4H10V3c0-.55.45-1 1-1zm-.329 5.5c0-.52-.7-.69-.94-.24l-2.67 5a.5.5 0 00.44.74h1.17v3.5c0 .52.7.69.94.24l2.67-5a.503.503 0 00-.44-.74h-1.17z"/>
        </g></svg>
